X:1
T:Title
%%score ( 1 2 ) { 3 | 4 }
L:1/8
Q:1/4=104
M:6/8
K:A
V:1 treble nm="Grand Piano, Soprano"
V:2 treble 
V:3 bass nm="Choir Pad, Ahmedabad, Bartlett, 1888"
V:4 bass 
V:1
 [CE]2 [CE] [CA][DB][Ec] | [DF]2 [DF] [FB]2 [FB] | z3 .G3 | [EA]2 [EB] .[Ac]3 | %4
w: By~Maro~Lummis~Bartlett,~1888 * * * *||||
 [CE]2 [CE] [CA][DB][Ec] | [DF]2 [DF] [FB]2 [FB] | z3 .G3 | [EA]2 [FA] [DA]3 | %8
w: ||||
 [Ec][Ec][Ec] [Ec][CA][DB] | [Ec]3 [CA]2 [EA] | [GB][GB][GB] [GB]<[Ge][Gd] | [Ac]6 | %12
w: ||||
 [Ac][Ac][Ac] [Ac]A[AB] | [Ac]3 [EA]3 | F2 [EF] [^DB]2 [FA] | [EA]3 [EG]3 | [EA]6- | [EA]3 z3 |] %18
w: ||||||
V:2
 x6 | x6 | [EG]2 [EG] E-[EF][EG] | x6 | x6 | x6 | [EG]2 [EG] E-[EF][EG] | x6 | x6 | x6 | x6 | x6 | %12
 x6 | x6 | x6 | x6 | x6 | x6 |] %18
V:3
 A,2 A, A,2 A, | A,2 A, D2 D | B,2 B, B,A,B, | C2 D .E3 | A,2 A,[K:bass] A,2 A, | A,2 A, D2 D | %6
 B,2 B, B,A,B, | C2 D C3 | A,A,[K:bass]A, A,A,A, | A,3 A,2[K:treble] C | EEE E<B,E | E6 | EEE ECD | %13
 E3 C3 | A,2 ^A, B,2 B, | C3 B,3 | C6- | C3 z3 |] %18
V:4
 A,,2 A,, A,,2 A,, | D,2 D, B,,2 B,, | E,2 E, E,2 E, | A,2 A, .A,3 | A,,2 A,, A,,2 A,, | %5
 D,2 D, B,,2 B,, | E,2 E, E,2 E, | A,,2 A,, A,,3 | A,,A,,A,, A,,A,,A,, | A,,3 A,,2 A, | %10
 E,E,E, E,<E,E, | A,6 | A,A,A, A,A,A, | A,3 A,3 | D,2 C, B,,2 ^D, | E,3 E,3 | A,,6- | A,,3 z3 |] %18

